X:51
T:Yr Hwrdd
M:C
L:1/8
Q:180
C:John Tose
R:Ronde St. Vincent
K:D
E3 F G2 d2 | c2 A2 B2 G2 | E3 F G2
d2 | c2 A2 G4 :||: A2 B2 =c2 B>A | G>A
G>F E2 A2 | A2 B2 =c2 B>A | G>A (3GFE D4 :||
